(G-CODE GENERATED BY FLATCAM - www.flatcam.org 2018)

(Name: Demo.drl_cnc)
(Type: G-code from Excellon)
(Units: MM)

(Created on Monday, 21 January 2019 at 10:38)

(Feedrate: 40.0 mm/min)
(Feedrate rapids 100.0 mm/min)

(Z_Cut: -1.7 mm)
(Z_Move: 0.5 mm)
(Z Toolchange: 1.0 mm)
(X,Y Toolchange: 0.0000, 0.0000 mm)
(Z Start: None mm)
(Z End: 2.0 mm)
(Steps per circle: 64)
(Postprocessor Excellon: default)
(Spindle Speed: None RPM)

G21
G90
G94

G01 F40.00
G00 Z0.5000

M03
G00 X-45.7300 Y39.2200
G01 Z-1.7000
G01 Z0
G00 Z0.5000
G00 X-44.4300 Y36.6800
G01 Z-1.7000
G01 Z0
G00 Z0.5000
G00 X-41.9200 Y36.6800
G01 Z-1.7000
G01 Z0
G00 Z0.5000
G00 X-30.9560 Y39.2200
G01 Z-1.7000
G01 Z0
G00 Z0.5000
G00 X-28.3860 Y39.2200
G01 Z-1.7000
G01 Z0
G00 Z0.5000
G00 X-27.1460 Y36.6800
G01 Z-1.7000
G01 Z0
G00 Z0.5000
G00 X-29.6560 Y36.6800
G01 Z-1.7000
G01 Z0
G00 Z0.5000
G00 X-43.1600 Y39.2200
G01 Z-1.7000
G01 Z0
G00 Z0.5000
M03
G00 X-52.0000 Y36.7500
G01 Z-1.7000
G01 Z0
G00 Z0.5000
G00 X-52.0000 Y33.6750
G01 Z-1.7000
G01 Z0
G00 Z0.5000
G00 X-45.0810 Y32.6690
G01 Z-1.7000
G01 Z0
G00 Z0.5000
G00 X-30.2940 Y33.7940
G01 Z-1.7000
G01 Z0
G00 Z0.5000
G00 X-18.1380 Y40.3220
G01 Z-1.7000
G01 Z0
G00 Z0.5000
G00 X-18.1380 Y37.7820
G01 Z-1.7000
G01 Z0
G00 Z0.5000
G00 X-18.1380 Y35.2420
G01 Z-1.7000
G01 Z0
G00 Z0.5000
G00 X-18.1380 Y32.7020
G01 Z-1.7000
G01 Z0
G00 Z0.5000
G00 X-18.1380 Y30.1620
G01 Z-1.7000
G01 Z0
G00 Z0.5000
G00 X-18.1380 Y27.6220
G01 Z-1.7000
G01 Z0
G00 Z0.5000
G00 X-18.1380 Y25.0820
G01 Z-1.7000
G01 Z0
G00 Z0.5000
G00 X-18.1380 Y22.5420
G01 Z-1.7000
G01 Z0
G00 Z0.5000
G00 X-18.1380 Y20.0020
G01 Z-1.7000
G01 Z0
G00 Z0.5000
G00 X-7.7500 Y20.5000
G01 Z-1.7000
G01 Z0
G00 Z0.5000
G00 X-2.8980 Y40.3220
G01 Z-1.7000
G01 Z0
G00 Z0.5000
G00 X-2.8980 Y37.7820
G01 Z-1.7000
G01 Z0
G00 Z0.5000
G00 X-2.8980 Y35.2420
G01 Z-1.7000
G01 Z0
G00 Z0.5000
G00 X-2.8980 Y32.7020
G01 Z-1.7000
G01 Z0
G00 Z0.5000
G00 X-2.8980 Y30.1620
G01 Z-1.7000
G01 Z0
G00 Z0.5000
G00 X-2.8980 Y27.6220
G01 Z-1.7000
G01 Z0
G00 Z0.5000
G00 X-2.8980 Y25.0820
G01 Z-1.7000
G01 Z0
G00 Z0.5000
G00 X-2.8980 Y22.5420
G01 Z-1.7000
G01 Z0
G00 Z0.5000
G00 X-2.8980 Y20.0020
G01 Z-1.7000
G01 Z0
G00 Z0.5000
G00 X-2.8980 Y17.4620
G01 Z-1.7000
G01 Z0
G00 Z0.5000
G00 X-2.8980 Y14.9220
G01 Z-1.7000
G01 Z0
G00 Z0.5000
G00 X-2.8980 Y12.3820
G01 Z-1.7000
G01 Z0
G00 Z0.5000
G00 X-2.8980 Y9.8420
G01 Z-1.7000
G01 Z0
G00 Z0.5000
G00 X-2.8980 Y7.3020
G01 Z-1.7000
G01 Z0
G00 Z0.5000
G00 X-2.8980 Y4.7620
G01 Z-1.7000
G01 Z0
G00 Z0.5000
G00 X-18.1380 Y4.7620
G01 Z-1.7000
G01 Z0
G00 Z0.5000
G00 X-18.1380 Y7.3020
G01 Z-1.7000
G01 Z0
G00 Z0.5000
G00 X-18.1380 Y9.8420
G01 Z-1.7000
G01 Z0
G00 Z0.5000
G00 X-18.1380 Y12.3820
G01 Z-1.7000
G01 Z0
G00 Z0.5000
G00 X-18.1380 Y14.9220
G01 Z-1.7000
G01 Z0
G00 Z0.5000
G00 X-18.1380 Y17.4620
G01 Z-1.7000
G01 Z0
G00 Z0.5000
G00 X-30.2500 Y15.1940
G01 Z-1.7000
G01 Z0
G00 Z0.5000
G00 X-38.2500 Y8.0000
G01 Z-1.7000
G01 Z0
G00 Z0.5000
G00 X-38.0000 Y12.2500
G01 Z-1.7000
G01 Z0
G00 Z0.5000
G00 X-28.2500 Y21.2500
G01 Z-1.7000
G01 Z0
G00 Z0.5000
G00 X-23.0000 Y22.5000
G01 Z-1.7000
G01 Z0
G00 Z0.5000
G00 X-23.2500 Y29.7500
G01 Z-1.7000
G01 Z0
G00 Z0.5000
G00 X-30.2500 Y29.7500
G01 Z-1.7000
G01 Z0
G00 Z0.5000
M03
G00 X-25.1600 Y4.1960
G01 Z-1.7000
G01 Z0
G00 Z0.5000
G00 X-22.6200 Y4.1960
G01 Z-1.7000
G01 Z0
G00 Z0.5000
M05
G00 Z2.00
G00 X0.0Y0.0

