(G-CODE GENERATED BY FLATCAM - www.flatcam.org 2018)

(Name: Demo.drl_mill_cnc)
(Type: G-code from Geometry)
(Units: MM)

(Created on Monday, 21 January 2019 at 10:40)

(TOOL DIAMETER: 2.0 mm)
(Feedrate: 275.0 mm/min)
(Feedrate_Z: 40.0 mm/min)
(Feedrate rapids 400.0 mm/min)

(Z_Cut: -1.65 mm)
(Z_Move: 0.5 mm)
(Z Toolchange: 1.0 mm)
(X,Y Toolchange: 0.0000, 0.0000 mm)
(Z Start: None mm)
(Z End: 2.0 mm)
(Steps per circle: 64)
(Postprocessor Geometry: default)
(Spindle Speed: None RPM)

G21
G90
G94

G01 F275.00
G00 Z0.5000

M03
G00 X-23.3510 Y45.5700
G01 F40.00
G01 Z-1.6500
G01 F275.00
G01 X-23.3540 Y45.5087
G01 X-23.3630 Y45.4481
G01 X-23.3779 Y45.3886
G01 X-23.3986 Y45.3308
G01 X-23.4248 Y45.2754
G01 X-23.4563 Y45.2228
G01 X-23.4929 Y45.1735
G01 X-23.5341 Y45.1281
G01 X-23.5795 Y45.0869
G01 X-23.6288 Y45.0503
G01 X-23.6814 Y45.0188
G01 X-23.7368 Y44.9926
G01 X-23.7946 Y44.9719
G01 X-23.8541 Y44.9570
G01 X-23.9147 Y44.9480
G01 X-23.9760 Y44.9450
G01 X-24.0373 Y44.9480
G01 X-24.0979 Y44.9570
G01 X-24.1574 Y44.9719
G01 X-24.2152 Y44.9926
G01 X-24.2706 Y45.0188
G01 X-24.3232 Y45.0503
G01 X-24.3725 Y45.0869
G01 X-24.4179 Y45.1281
G01 X-24.4591 Y45.1735
G01 X-24.4957 Y45.2228
G01 X-24.5272 Y45.2754
G01 X-24.5534 Y45.3308
G01 X-24.5741 Y45.3886
G01 X-24.5890 Y45.4481
G01 X-24.5980 Y45.5087
G01 X-24.6010 Y45.5700
G01 X-24.5980 Y45.6313
G01 X-24.5890 Y45.6919
G01 X-24.5741 Y45.7514
G01 X-24.5534 Y45.8092
G01 X-24.5272 Y45.8646
G01 X-24.4957 Y45.9172
G01 X-24.4591 Y45.9665
G01 X-24.4179 Y46.0119
G01 X-24.3725 Y46.0531
G01 X-24.3232 Y46.0897
G01 X-24.2706 Y46.1212
G01 X-24.2152 Y46.1474
G01 X-24.1574 Y46.1681
G01 X-24.0979 Y46.1830
G01 X-24.0373 Y46.1920
G01 X-23.9760 Y46.1950
G01 X-23.9147 Y46.1920
G01 X-23.8541 Y46.1830
G01 X-23.7946 Y46.1681
G01 X-23.7368 Y46.1474
G01 X-23.6814 Y46.1212
G01 X-23.6288 Y46.0897
G01 X-23.5795 Y46.0531
G01 X-23.5341 Y46.0119
G01 X-23.4929 Y45.9665
G01 X-23.4563 Y45.9172
G01 X-23.4248 Y45.8646
G01 X-23.3986 Y45.8092
G01 X-23.3779 Y45.7514
G01 X-23.3630 Y45.6919
G01 X-23.3540 Y45.6313
G01 X-23.3510 Y45.5700
G00 Z0.5000
G00 X-33.5110 Y45.5700
G01 F40.00
G01 Z-1.6500
G01 F275.00
G01 X-33.5140 Y45.5087
G01 X-33.5230 Y45.4481
G01 X-33.5379 Y45.3886
G01 X-33.5586 Y45.3308
G01 X-33.5848 Y45.2754
G01 X-33.6163 Y45.2228
G01 X-33.6529 Y45.1735
G01 X-33.6941 Y45.1281
G01 X-33.7395 Y45.0869
G01 X-33.7888 Y45.0503
G01 X-33.8414 Y45.0188
G01 X-33.8968 Y44.9926
G01 X-33.9546 Y44.9719
G01 X-34.0141 Y44.9570
G01 X-34.0747 Y44.9480
G01 X-34.1360 Y44.9450
G01 X-34.1973 Y44.9480
G01 X-34.2579 Y44.9570
G01 X-34.3174 Y44.9719
G01 X-34.3752 Y44.9926
G01 X-34.4306 Y45.0188
G01 X-34.4832 Y45.0503
G01 X-34.5325 Y45.0869
G01 X-34.5779 Y45.1281
G01 X-34.6191 Y45.1735
G01 X-34.6557 Y45.2228
G01 X-34.6872 Y45.2754
G01 X-34.7134 Y45.3308
G01 X-34.7341 Y45.3886
G01 X-34.7490 Y45.4481
G01 X-34.7580 Y45.5087
G01 X-34.7610 Y45.5700
G01 X-34.7580 Y45.6313
G01 X-34.7490 Y45.6919
G01 X-34.7341 Y45.7514
G01 X-34.7134 Y45.8092
G01 X-34.6872 Y45.8646
G01 X-34.6557 Y45.9172
G01 X-34.6191 Y45.9665
G01 X-34.5779 Y46.0119
G01 X-34.5325 Y46.0531
G01 X-34.4832 Y46.0897
G01 X-34.4306 Y46.1212
G01 X-34.3752 Y46.1474
G01 X-34.3174 Y46.1681
G01 X-34.2579 Y46.1830
G01 X-34.1973 Y46.1920
G01 X-34.1360 Y46.1950
G01 X-34.0747 Y46.1920
G01 X-34.0141 Y46.1830
G01 X-33.9546 Y46.1681
G01 X-33.8968 Y46.1474
G01 X-33.8414 Y46.1212
G01 X-33.7888 Y46.0897
G01 X-33.7395 Y46.0531
G01 X-33.6941 Y46.0119
G01 X-33.6529 Y45.9665
G01 X-33.6163 Y45.9172
G01 X-33.5848 Y45.8646
G01 X-33.5586 Y45.8092
G01 X-33.5379 Y45.7514
G01 X-33.5230 Y45.6919
G01 X-33.5140 Y45.6313
G01 X-33.5110 Y45.5700
G00 Z0.5000
G00 X-38.1250 Y45.5700
G01 F40.00
G01 Z-1.6500
G01 F275.00
G01 X-38.1280 Y45.5087
G01 X-38.1370 Y45.4481
G01 X-38.1519 Y45.3886
G01 X-38.1726 Y45.3308
G01 X-38.1988 Y45.2754
G01 X-38.2303 Y45.2228
G01 X-38.2669 Y45.1735
G01 X-38.3081 Y45.1281
G01 X-38.3535 Y45.0869
G01 X-38.4028 Y45.0503
G01 X-38.4554 Y45.0188
G01 X-38.5108 Y44.9926
G01 X-38.5686 Y44.9719
G01 X-38.6281 Y44.9570
G01 X-38.6887 Y44.9480
G01 X-38.7500 Y44.9450
G01 X-38.8113 Y44.9480
G01 X-38.8719 Y44.9570
G01 X-38.9314 Y44.9719
G01 X-38.9892 Y44.9926
G01 X-39.0446 Y45.0188
G01 X-39.0972 Y45.0503
G01 X-39.1465 Y45.0869
G01 X-39.1919 Y45.1281
G01 X-39.2331 Y45.1735
G01 X-39.2697 Y45.2228
G01 X-39.3012 Y45.2754
G01 X-39.3274 Y45.3308
G01 X-39.3481 Y45.3886
G01 X-39.3630 Y45.4481
G01 X-39.3720 Y45.5087
G01 X-39.3750 Y45.5700
G01 X-39.3720 Y45.6313
G01 X-39.3630 Y45.6919
G01 X-39.3481 Y45.7514
G01 X-39.3274 Y45.8092
G01 X-39.3012 Y45.8646
G01 X-39.2697 Y45.9172
G01 X-39.2331 Y45.9665
G01 X-39.1919 Y46.0119
G01 X-39.1465 Y46.0531
G01 X-39.0972 Y46.0897
G01 X-39.0446 Y46.1212
G01 X-38.9892 Y46.1474
G01 X-38.9314 Y46.1681
G01 X-38.8719 Y46.1830
G01 X-38.8113 Y46.1920
G01 X-38.7500 Y46.1950
G01 X-38.6887 Y46.1920
G01 X-38.6281 Y46.1830
G01 X-38.5686 Y46.1681
G01 X-38.5108 Y46.1474
G01 X-38.4554 Y46.1212
G01 X-38.4028 Y46.0897
G01 X-38.3535 Y46.0531
G01 X-38.3081 Y46.0119
G01 X-38.2669 Y45.9665
G01 X-38.2303 Y45.9172
G01 X-38.1988 Y45.8646
G01 X-38.1726 Y45.8092
G01 X-38.1519 Y45.7514
G01 X-38.1370 Y45.6919
G01 X-38.1280 Y45.6313
G01 X-38.1250 Y45.5700
G00 Z0.5000
G00 X-48.2850 Y45.5700
G01 F40.00
G01 Z-1.6500
G01 F275.00
G01 X-48.2880 Y45.5087
G01 X-48.2970 Y45.4481
G01 X-48.3119 Y45.3886
G01 X-48.3326 Y45.3308
G01 X-48.3588 Y45.2754
G01 X-48.3903 Y45.2228
G01 X-48.4269 Y45.1735
G01 X-48.4681 Y45.1281
G01 X-48.5135 Y45.0869
G01 X-48.5628 Y45.0503
G01 X-48.6154 Y45.0188
G01 X-48.6708 Y44.9926
G01 X-48.7286 Y44.9719
G01 X-48.7881 Y44.9570
G01 X-48.8487 Y44.9480
G01 X-48.9100 Y44.9450
G01 X-48.9713 Y44.9480
G01 X-49.0319 Y44.9570
G01 X-49.0914 Y44.9719
G01 X-49.1492 Y44.9926
G01 X-49.2046 Y45.0188
G01 X-49.2572 Y45.0503
G01 X-49.3065 Y45.0869
G01 X-49.3519 Y45.1281
G01 X-49.3931 Y45.1735
G01 X-49.4297 Y45.2228
G01 X-49.4612 Y45.2754
G01 X-49.4874 Y45.3308
G01 X-49.5081 Y45.3886
G01 X-49.5230 Y45.4481
G01 X-49.5320 Y45.5087
G01 X-49.5350 Y45.5700
G01 X-49.5320 Y45.6313
G01 X-49.5230 Y45.6919
G01 X-49.5081 Y45.7514
G01 X-49.4874 Y45.8092
G01 X-49.4612 Y45.8646
G01 X-49.4297 Y45.9172
G01 X-49.3931 Y45.9665
G01 X-49.3519 Y46.0119
G01 X-49.3065 Y46.0531
G01 X-49.2572 Y46.0897
G01 X-49.2046 Y46.1212
G01 X-49.1492 Y46.1474
G01 X-49.0914 Y46.1681
G01 X-49.0319 Y46.1830
G01 X-48.9713 Y46.1920
G01 X-48.9100 Y46.1950
G01 X-48.8487 Y46.1920
G01 X-48.7881 Y46.1830
G01 X-48.7286 Y46.1681
G01 X-48.6708 Y46.1474
G01 X-48.6154 Y46.1212
G01 X-48.5628 Y46.0897
G01 X-48.5135 Y46.0531
G01 X-48.4681 Y46.0119
G01 X-48.4269 Y45.9665
G01 X-48.3903 Y45.9172
G01 X-48.3588 Y45.8646
G01 X-48.3326 Y45.8092
G01 X-48.3119 Y45.7514
G01 X-48.2970 Y45.6919
G01 X-48.2880 Y45.6313
G01 X-48.2850 Y45.5700
G00 Z0.5000
M05
G00 Z0.5000
G00 Z2.00
G00 X0.0Y0.0

