(G-CODE GENERATED BY FLATCAM - www.flatcam.org 2018)

(Name: Demo.drl_cnc_1)
(Type: G-code from Excellon)
(Units: MM)

(Created on Monday, 21 January 2019 at 10:39)

(Feedrate: 40.0 mm/min)
(Feedrate rapids 100.0 mm/min)

(Z_Cut: -1.7 mm)
(Z_Move: 0.5 mm)
(Z Toolchange: 1.0 mm)
(X,Y Toolchange: 0.0000, 0.0000 mm)
(Z Start: None mm)
(Z End: 2.0 mm)
(Steps per circle: 64)
(Postprocessor Excellon: default)
(Spindle Speed: None RPM)

G21
G90
G94

G01 F40.00
G00 Z0.5000

M03
G00 X-42.0400 Y33.2500
G01 Z-1.7000
G01 Z0
G00 Z0.5000
G00 X-39.5000 Y33.2500
G01 Z-1.7000
G01 Z0
G00 Z0.5000
M03
G00 X-52.5000 Y8.0000
G01 Z-1.7000
G01 Z0
G00 Z0.5000
G00 X-57.0000 Y8.0000
G01 Z-1.7000
G01 Z0
G00 Z0.5000
G00 X-57.0000 Y1.5000
G01 Z-1.7000
G01 Z0
G00 Z0.5000
G00 X-52.5000 Y1.5000
G01 Z-1.7000
G01 Z0
G00 Z0.5000
G00 X-45.7500 Y1.5000
G01 Z-1.7000
G01 Z0
G00 Z0.5000
G00 X-41.2500 Y1.5000
G01 Z-1.7000
G01 Z0
G00 Z0.5000
G00 X-35.5000 Y1.5000
G01 Z-1.7000
G01 Z0
G00 Z0.5000
G00 X-31.0000 Y1.5000
G01 Z-1.7000
G01 Z0
G00 Z0.5000
G00 X-31.0000 Y8.0000
G01 Z-1.7000
G01 Z0
G00 Z0.5000
G00 X-35.5000 Y8.0000
G01 Z-1.7000
G01 Z0
G00 Z0.5000
G00 X-41.2500 Y8.0000
G01 Z-1.7000
G01 Z0
G00 Z0.5000
G00 X-45.7500 Y8.0000
G01 Z-1.7000
G01 Z0
G00 Z0.5000
G00 X-55.4600 Y45.5000
G01 Z-1.7000
G01 Z0
G00 Z0.5000
G00 X-58.0000 Y45.5000
G01 Z-1.7000
G01 Z0
G00 Z0.5000
M03
G00 X-58.0000 Y48.0400
G01 Z-1.7000
G01 Z0
G00 Z0.5000
G00 X-55.4600 Y48.0400
G01 Z-1.7000
G01 Z0
G00 Z0.5000
M05
G00 Z2.00
G00 X0.0Y0.0

