(G-CODE GENERATED BY FLATCAM - www.flatcam.org 2018)

(Name: Demo-Edge.Cuts.gbr_cutout_cnc)
(Type: G-code from Geometry)
(Units: MM)

(Created on Monday, 21 January 2019 at 10:37)

(TOOL DIAMETER: 2.0 mm)
(Feedrate: 275.0 mm/min)
(Feedrate_Z: 40.0 mm/min)
(Feedrate rapids 400.0 mm/min)

(Z_Cut: -0.1 mm)
(Z_Move: 0.5 mm)
(Z Toolchange: 1.0 mm)
(X,Y Toolchange: 0.0000, 0.0000 mm)
(Z Start: None mm)
(Z End: 2.0 mm)
(Steps per circle: 64)
(Postprocessor Geometry: default)
(Spindle Speed: None RPM)

G21
G90
G94

G01 F275.00
G00 Z0.5000

M03
G00 X1.0750 Y23.4500
G01 F40.00
G01 Z-0.1000
G01 F275.00
G01 X1.0750 Y-1.0750
G01 X-62.0750 Y-1.0750
G01 X-62.0750 Y23.4500
G00 Z0.5000
G00 X-62.0750 Y25.5500
G01 F40.00
G01 Z-0.1000
G01 F275.00
G01 X-62.0750 Y50.0750
G01 X1.0750 Y50.0750
G01 X1.0750 Y25.5500
G00 Z0.5000
M05
G00 Z0.5000
G00 Z2.00
G00 X0.0Y0.0

